X:1
T:O Thomas Didyme
T:O Thomas Didyme
T:Rupert Unterholzer
T:Source : Trium vocum cantiones---Nürnberg---J.Petreius---1541. Editor : André Vierendeels (13/04/16).
T:Notes : Original clefs : C3, C3, F4 Editorial accidentals above the staff Original note values have been halved Square brackets indicate ligatures
T:©
T:©
T:©
T:©
T:©
C:Rupert Unterholzer
Z:©
%%score [ 1 2 3 ]
L:1/8
Q:1/4=85
M:2/2
K:C
V:1 treble-8 nm="Tenor 1" snm="T 1"
V:2 treble-8 nm="Tenor 2" snm="T 2"
V:3 bass nm="Bass" snm="B"
V:1
 z4 A4 | c4 c4 | A2 c3 B A2- | A2 G2 A2 e2 | f2 e3 dcB | A2 e2 f2 e2- | ed c2 B4 | A4 z4 | e4 f4 | %9
w: O|_ Tho-|mas Di- * *|* dy- me, Di-|dy- * * * *|||me,|Chri- *|
 d4 e4 | f4 e2 c2 | f4 e2 d2 | c2 d2 f4 | d4 z4 | d4 c2 d2 | f4 edcB | c4 f4 | e4 c4 | g4 e4 | %19
w: stum, Chri-|* * stum,|Chri- * *||stium,|quem me- ru-|i- sti _ _ _|_ tan-|ge- re,|tan- ge-|
 d4 g4 | f3 e/d/ e2 d2- | d2 c2 d2 f2 | e2 d4 c2 | f4 e4 | c2 f4 ed | c4 z4 | z4 A4 | c3 d ef e2- | %28
w: re nunc|pre- * * * ci-||bus te ro-|ga- *||mus|al-|ti _ _ _ _|
 e2 d2 e4 | z2 g2 f4 | e2 g2 f2 e2- | ed g4 f2 | g8 | z4 e4- | e2 e2 e4 | c2 c2 f4 | e4 c2 e2 | %37
w: _ so- nis,|suc- cur-|rat no- bis mi-|* * * se-|ris,|ne|_ dan- ne-|mur cum im-|pi- is, cum|
 f2 f2 e4- | e4 d4 | e4 g4 | e6 d2 | c2 B2 A4 | G4 g3 f | ed e4 dc | d2 g3 fed | c2 c2 e4 | f4 c4 | %47
w: im- pi- is|_ in|ad- ven-|||tu iu- *|||* di- cis,|in iu-|
 f8 | e8 |] %49
w: di-|cis.|
V:2
 z8 | z8 | z8 | z8 | A4 c4 | c4 A2 c2- | cB A4 G2 | A8- | A8 | B4 c4 | A8- | A8 | z4 A4 | %13
w: ||||O _|Tho- ma Di-|* * * dy-|me,|_|Chri- *|stum,|_|quem|
 G2 A2 c4 | A8- | A8- | A8 | c4 A4 | G8- | G8 | A8 | G4 A4 | A8 | z2 A2 c4 | A8 | A4 c3 d | %26
w: me- ru- i-|sti|_||tan- ge-|re,|_|nunc|pre- ci-|bus|ro- ga-|mus|al- ti _|
 ef e4 d2 | e4 z4 | z4 z2 e2 | e4 d4 | c4 A2 c2- | cBAG A4 | G8 | c6 c2 | c4 B4 | A8 | c8 | A8 | %38
w: _ _ _ so-|nis,|soc-|cur- rat|no- bis mi-|* * * * se-|ris,|ne dan-|ne- mur|cum|im-|pi-|
 G8- | G8 | z4 G4 | A4 c4- | c4 G4 | c8 | B8 | A8- | A8- | A8- | A8 |] %49
w: is|_|in|ad- ven-|* tu|iu-|di-|cis.|_|||
V:3
 D,4 F,4 | F,4 C,2 F,2- | F,2 E,D, C,2 D,2 | B,,4 A,,2 C,2 | D,2 C,2 A,,4 | z2 C,2 D,2 C,2 | %6
w: O _|Tho- mas Di-||dy- me, Di-|* dy- me,|Di- * dy-|
 A,,4 E,4 | F,4 D,4 | z2 A,,2 D,3 C, | B,,2 G,,2 C,4 | D,4 A,,4 | z2 D,2 C,2 D,2 | F,4 D,4 | %13
w: me, Chri-|* stum,|Chri- * *||* stum,|quem me- ru-|i- sti,|
 z2 D,2 C,4 | D,4 F,4 | D,4 z4 | F,4 D,4 | C,4 z4 | C,8 | B,,4 G,,4 | D,4 C,2 D,2 | E,4 D,4 | %22
w: quem me-|ru- i-|sti|tan- ge|re,|tan-|ge- re,|nunc pre- ci-|bus te|
 z2 D,2 F,4 | D,4 z2 C,2 | F,4 D,4 | F,3 G, A,B, A,2- | A,2 G,2 F,4 |"^#" E,2 A,2 A,3 G, | %28
w: ro- ga-|mus al-|ti so-|||nis, al- ti _|
 F,4 E,4 | z2 C,2 D,2 B,,2 | C,4 D,2 A,,B,, | C,D, E,2 D,4 | G,,4 C,4- | C,2 C,2 C,4 | G,,4 E,4 | %35
w: so- nis,|suc- cur- rat|no- bis mi- *|* * * se-|ris, ne|_ dan- ne-|mur cum|
 F,4 D,4 | C,4 z2 A,,2 | D,4 C,2 A,,2 | C,4 B,,2 G,,2 | C,4 G,,4 | A,,4 C,4 | A,,6 B,,2 | %42
w: im- pi-|is, ne|dan- ne- mur|cum im- pi-|is, in|ad- ven-|tu iu-|
 C,2 D,2 E,4 | A,,8 | z4 E,4 | F,4 C,4 | F,6 E,2 | D,4 D,4 | A,,8 |] %49
w: di- * *|cis,|in|ad- ven-|tu iu-|di- ci-|is.|

